data/thesis_graphs/vector_graphs/1.svg

<?xml version="1.0" encoding="UTF-8" standalone="no"?>
<!-- Generated by graphviz version 2.43.0 (0)
 -->

<!-- Title: %3 Pages: 1 -->

<svg
   width="869.00055pt"
   height="318.80811pt"
   viewBox="0 0 869.06999 318.81535"
   version="1.1"
   id="svg262"
   sodipodi:docname="1.svg"
   inkscape:version="1.2.2 (b0a8486541, 2022-12-01)"
   xmlns:inkscape="http://www.inkscape.org/namespaces/inkscape"
   xmlns:sodipodi="http://sodipodi.sourceforge.net/DTD/sodipodi-0.dtd"
   xmlns="http://www.w3.org/2000/svg"
   xmlns:svg="http://www.w3.org/2000/svg">
  <defs
     id="defs266" />
  <sodipodi:namedview
     id="namedview264"
     pagecolor="#ffffff"
     bordercolor="#000000"
     borderopacity="0.25"
     inkscape:showpageshadow="2"
     inkscape:pageopacity="0.0"
     inkscape:pagecheckerboard="0"
     inkscape:deskcolor="#d1d1d1"
     inkscape:document-units="pt"
     showgrid="false"
     inkscape:zoom="1.1815068"
     inkscape:cx="578.92176"
     inkscape:cy="289.03769"
     inkscape:window-width="1920"
     inkscape:window-height="1001"
     inkscape:window-x="-9"
     inkscape:window-y="-9"
     inkscape:window-maximized="1"
     inkscape:current-layer="graph0" />
  <g
     id="graph0"
     class="graph"
     transform="translate(0.5,432.49744)">
    <title
       id="title135">%3</title>
    <!-- Rbsp:coin_0 -->
    <g
       id="node1"
       class="node">
      <title
         id="title151">Rbsp:coin_0</title>
      <ellipse
         fill="none"
         stroke="#0000ff"
         cx="532.03998"
         cy="-414.01001"
         rx="59.59"
         ry="18"
         id="ellipse153" />
      <text
         text-anchor="middle"
         x="532.03998"
         y="-410.31"
         font-family="Times, serif"
         font-size="14px"
         id="text155">bsp:coin_0</text>
    </g>
    <!-- Rnm:rome -->
    <g
       id="node2"
       class="node">
      <title
         id="title158">Rnm:rome</title>
      <ellipse
         fill="none"
         stroke="#0000ff"
         cx="816.08002"
         cy="-363.01001"
         rx="51.990002"
         ry="18"
         id="ellipse160" />
      <text
         text-anchor="middle"
         x="816.08002"
         y="-359.31"
         font-family="Times, serif"
         font-size="14px"
         id="text162">nm:rome</text>
    </g>
    <!-- Rbsp:coin_0&#45;&gt;Rnm:rome -->
    <g
       id="edge1"
       class="edge">
      <title
         id="title165">Rbsp:coin_0-&gt;Rnm:rome</title>
      <path
         fill="none"
         stroke="#000000"
         d="m 584.77,-405.45 c 43.19,7.25 106.34,18.09 161.31,28.44 4.78,0.89 9.74,1.85 14.71,2.83"
         id="path167" />
      <polygon
         fill="#000000"
         stroke="#000000"
         points="761.82,-377.54 770.95,-372.16 760.46,-370.68 "
         id="polygon169" />
      <text
         text-anchor="middle"
         x="699.08002"
         y="-396.81"
         font-family="Times, serif"
         font-size="14px"
         id="text171">nmo:hasMint</text>
    </g>
    <!-- Rbsp:coin_1 -->
    <g
       id="node3"
       class="node">
      <title
         id="title174">Rbsp:coin_1</title>
      <ellipse
         fill="none"
         stroke="#0000ff"
         cx="532.03998"
         cy="-309.01001"
         rx="59.59"
         ry="18"
         id="ellipse176" />
      <text
         text-anchor="middle"
         x="532.03998"
         y="-305.31"
         font-family="Times, serif"
         font-size="14px"
         id="text178">bsp:coin_1</text>
    </g>
    <!-- Rbsp:coin_1&#45;&gt;Rnm:rome -->
    <g
       id="edge2"
       class="edge">
      <title
         id="title181">Rbsp:coin_1-&gt;Rnm:rome</title>
      <path
         fill="none"
         stroke="#000000"
         d="m 591.73,-311.47 c 43.26,-2.87 103.21,-9.09 154.35,-22.54 9.99,-2.63 20.43,-6.43 30.08,-10.41"
         id="path183" />
      <polygon
         fill="#000000"
         stroke="#000000"
         points="774.92,-347.7 785.49,-348.42 777.68,-341.26 "
         id="polygon185" />
      <text
         text-anchor="middle"
         x="674.95636"
         y="-330.82684"
         font-family="Times, serif"
         font-size="14px"
         id="text187">nmo:hasMint</text>
    </g>
    <!-- B_:genid1 -->
    <g
       id="node4"
       class="node">
      <title
         id="title190">B_:genid1</title>
      <circle
         fill="none"
         stroke="#008000"
         cx="18"
         cy="-255.00999"
         id="ellipse192"
         r="18" />
    </g>
    <!-- B_:genid1&#45;&gt;Rnm:rome -->
    <g
       id="edge7"
       class="edge">
      <title
         id="title195">B_:genid1-&gt;Rnm:rome</title>
      <path
         fill="none"
         stroke="#000000"
         d="m 21.5,-272.72 c 3.64,-18.49 12.33,-46.67 32.5,-60.29 57.31,-38.73 529.31,-34.19 699.88,-31.24"
         id="path197" />
      <polygon
         fill="#000000"
         stroke="#000000"
         points="754.01,-367.75 763.95,-364.08 753.89,-360.75 "
         id="polygon199" />
      <text
         text-anchor="middle"
         x="241.2863"
         y="-374.25385"
         font-family="Times, serif"
         font-size="14px"
         id="text201"
         inkscape:transform-center-x="-27.932668"
         inkscape:transform-center-y="0.63483336">crm:P141_assigned</text>
    </g>
    <!-- B_:genid1&#45;&gt;Rbsp:coin_1 -->
    <g
       id="edge6"
       class="edge">
      <title
         id="title204">B_:genid1-&gt;Rbsp:coin_1</title>
      <path
         fill="none"
         stroke="#000000"
         d="m 33.38,-264.62 c 6.11,-3.58 13.45,-7.29 20.62,-9.39 140.94,-41.34 314.84,-42.27 408.88,-38.89"
         id="path206" />
      <polygon
         fill="#000000"
         stroke="#000000"
         points="463.26,-316.39 473.11,-312.5 462.99,-309.39 "
         id="polygon208" />
      <text
         text-anchor="middle"
         x="233"
         y="-317.81"
         font-family="Times, serif"
         font-size="14px"
         id="text210">crm:P140_assigned_attribute_to</text>
    </g>
    <!-- Rcrm:E13 -->
    <g
       id="node5"
       class="node">
      <title
         id="title213">Rcrm:E13</title>
      <ellipse
         fill="none"
         stroke="#0000ff"
         cx="532.03998"
         cy="-255.00999"
         rx="50.09"
         ry="18"
         id="ellipse215" />
      <text
         text-anchor="middle"
         x="532.03998"
         y="-251.31"
         font-family="Times, serif"
         font-size="14px"
         id="text217">crm:E13</text>
    </g>
    <!-- B_:genid1&#45;&gt;Rcrm:E13 -->
    <g
       id="edge3"
       class="edge">
      <title
         id="title220">B_:genid1-&gt;Rcrm:E13</title>
      <path
         fill="none"
         stroke="#000000"
         d="m 36.04,-255.01 c 67.71,0 319.75,0 435.81,0"
         id="path222" />
      <polygon
         fill="#000000"
         stroke="#000000"
         points="471.97,-258.52 481.97,-255.01 471.97,-251.52 "
         id="polygon224" />
      <text
         text-anchor="middle"
         x="262.83716"
         y="-265.15833"
         font-family="Times, serif"
         font-size="14px"
         id="text226"><tspan
           sodipodi:role="line"
           id="tspan442"
           x="262.83716"
           y="-265.15833">rdf:type</tspan></text>
    </g>
    <!-- Rnmo:hasMint -->
    <g
       id="node6"
       class="node">
      <title
         id="title229">Rnmo:hasMint</title>
      <ellipse
         fill="none"
         stroke="#0000ff"
         cx="532.03998"
         cy="-201.00999"
         rx="71.489998"
         ry="18"
         id="ellipse231" />
      <text
         text-anchor="middle"
         x="532.03998"
         y="-197.31"
         font-family="Times, serif"
         font-size="14px"
         id="text233">nmo:hasMint</text>
    </g>
    <!-- B_:genid1&#45;&gt;Rnmo:hasMint -->
    <g
       id="edge4"
       class="edge">
      <title
         id="title236">B_:genid1-&gt;Rnmo:hasMint</title>
      <path
         fill="none"
         stroke="#000000"
         d="m 33.38,-245.41 c 6.11,3.58 13.45,7.29 20.62,9.4 135.51,39.74 301.49,42.13 397.66,39.25"
         id="path238" />
      <polygon
         fill="#000000"
         stroke="#000000"
         points="451.78,-200.27 461.89,-197.1 452.01,-193.27 "
         id="polygon240" />
      <text
         text-anchor="middle"
         x="243.79216"
         y="-219.49533"
         font-family="Times, serif"
         font-size="14px"
         id="text242">bmo:PX_Property</text>
    </g>
    <!-- Rnm:uncertain_value -->
    <g
       id="node7"
       class="node">
      <title
         id="title245">Rnm:uncertain_value</title>
      <ellipse
         fill="none"
         stroke="#0000ff"
         cx="532.03998"
         cy="-147.00999"
         rx="102.08"
         ry="18"
         id="ellipse247" />
      <text
         text-anchor="middle"
         x="532.03998"
         y="-143.31"
         font-family="Times, serif"
         font-size="14px"
         id="text249">nm:uncertain_value</text>
    </g>
    <!-- B_:genid1&#45;&gt;Rnm:uncertain_value -->
    <g
       id="edge5"
       class="edge">
      <title
         id="title252">B_:genid1-&gt;Rnm:uncertain_value</title>
      <path
         fill="none"
         stroke="#000000"
         d="m 21.63,-237.07 c 3.73,18.42 12.48,46.28 32.37,60.06 122.17,84.64 306.88,65.53 406.83,46.41"
         id="path254" />
      <polygon
         fill="#000000"
         stroke="#000000"
         points="460.34,-134.07 470.83,-132.56 461.69,-127.2 "
         id="polygon256" />
      <text
         text-anchor="middle"
         x="234.26967"
         y="-142.08516"
         font-family="Times, serif"
         font-size="14px"
         id="text258">bmo:PX_likelihood</text>
    </g>
  </g>
</svg>

<?xml version="1.0" encoding="UTF-8" standalone="no"?>
<!-- Generated by graphviz version 2.43.0 (0)
 -->

<!-- Title: %3 Pages: 1 -->

<svg
   width="876pt"
   height="440pt"
   viewBox="0.00 0.00 876.07 440.01"
   version="1.1"
   id="svg262"
   sodipodi:docname="1.svg"
   inkscape:version="1.2.2 (b0a8486541, 2022-12-01)"
   xmlns:inkscape="http://www.inkscape.org/namespaces/inkscape"
   xmlns:sodipodi="http://sodipodi.sourceforge.net/DTD/sodipodi-0.dtd"
   xmlns="http://www.w3.org/2000/svg"
   xmlns:svg="http://www.w3.org/2000/svg">
  <defs
     id="defs266" />
  <sodipodi:namedview
     id="namedview264"
     pagecolor="#ffffff"
     bordercolor="#000000"
     borderopacity="0.25"
     inkscape:showpageshadow="2"
     inkscape:pageopacity="0.0"
     inkscape:pagecheckerboard="0"
     inkscape:deskcolor="#d1d1d1"
     inkscape:document-units="pt"
     showgrid="false"
     inkscape:zoom="1.1815068"
     inkscape:cx="584.00002"
     inkscape:cy="294.11595"
     inkscape:window-width="1920"
     inkscape:window-height="1001"
     inkscape:window-x="-9"
     inkscape:window-y="-9"
     inkscape:window-maximized="1"
     inkscape:current-layer="graph0" />
  <g
     id="graph0"
     class="graph"
     transform="scale(1 1) rotate(0) translate(4 436.01)">
    <title
       id="title135">%3</title>
    <polygon
       fill="white"
       stroke="transparent"
       points="-4,4 -4,-436.01 872.07,-436.01 872.07,4 -4,4"
       id="polygon137" />
    <!-- Rbsp:coin_0 -->
    <g
       id="node1"
       class="node">
      <title
         id="title151">Rbsp:coin_0</title>
      <ellipse
         fill="none"
         stroke="blue"
         cx="532.04"
         cy="-414.01"
         rx="59.59"
         ry="18"
         id="ellipse153" />
      <text
         text-anchor="middle"
         x="532.04"
         y="-410.31"
         font-family="Times,serif"
         font-size="14.00"
         id="text155">bsp:coin_0</text>
    </g>
    <!-- Rnm:rome -->
    <g
       id="node2"
       class="node">
      <title
         id="title158">Rnm:rome</title>
      <ellipse
         fill="none"
         stroke="blue"
         cx="816.08"
         cy="-363.01"
         rx="51.99"
         ry="18"
         id="ellipse160" />
      <text
         text-anchor="middle"
         x="816.08"
         y="-359.31"
         font-family="Times,serif"
         font-size="14.00"
         id="text162">nm:rome</text>
    </g>
    <!-- Rbsp:coin_0&#45;&gt;Rnm:rome -->
    <g
       id="edge1"
       class="edge">
      <title
         id="title165">Rbsp:coin_0-&gt;Rnm:rome</title>
      <path
         fill="none"
         stroke="black"
         d="M584.77,-405.45C627.96,-398.2 691.11,-387.36 746.08,-377.01 750.86,-376.12 755.82,-375.16 760.79,-374.18"
         id="path167" />
      <polygon
         fill="black"
         stroke="black"
         points="761.82,-377.54 770.95,-372.16 760.46,-370.68 761.82,-377.54"
         id="polygon169" />
      <text
         text-anchor="middle"
         x="699.08"
         y="-396.81"
         font-family="Times,serif"
         font-size="14.00"
         id="text171">nmo:hasMint</text>
    </g>
    <!-- Rbsp:coin_1 -->
    <g
       id="node3"
       class="node">
      <title
         id="title174">Rbsp:coin_1</title>
      <ellipse
         fill="none"
         stroke="blue"
         cx="532.04"
         cy="-309.01"
         rx="59.59"
         ry="18"
         id="ellipse176" />
      <text
         text-anchor="middle"
         x="532.04"
         y="-305.31"
         font-family="Times,serif"
         font-size="14.00"
         id="text178">bsp:coin_1</text>
    </g>
    <!-- Rbsp:coin_1&#45;&gt;Rnm:rome -->
    <g
       id="edge2"
       class="edge">
      <title
         id="title181">Rbsp:coin_1-&gt;Rnm:rome</title>
      <path
         fill="none"
         stroke="black"
         d="M591.73,-311.47C634.99,-314.34 694.94,-320.56 746.08,-334.01 756.07,-336.64 766.51,-340.44 776.16,-344.42"
         id="path183" />
      <polygon
         fill="black"
         stroke="black"
         points="774.92,-347.7 785.49,-348.42 777.68,-341.26 774.92,-347.7"
         id="polygon185" />
      <text
         text-anchor="middle"
         x="674.95636"
         y="-330.82684"
         font-family="Times, serif"
         font-size="14px"
         id="text187">nmo:hasMint</text>
    </g>
    <!-- B_:genid1 -->
    <g
       id="node4"
       class="node">
      <title
         id="title190">B_:genid1</title>
      <ellipse
         fill="none"
         stroke="green"
         cx="18"
         cy="-255.01"
         rx="18"
         ry="18"
         id="ellipse192" />
    </g>
    <!-- B_:genid1&#45;&gt;Rnm:rome -->
    <g
       id="edge7"
       class="edge">
      <title
         id="title195">B_:genid1-&gt;Rnm:rome</title>
      <path
         fill="none"
         stroke="black"
         d="M21.5,-272.72C25.14,-291.21 33.83,-319.39 54,-333.01 111.31,-371.74 583.31,-367.2 753.88,-364.25"
         id="path197" />
      <polygon
         fill="black"
         stroke="black"
         points="754.01,-367.75 763.95,-364.08 753.89,-360.75 754.01,-367.75"
         id="polygon199" />
      <text
         text-anchor="middle"
         x="241.2863"
         y="-374.25385"
         font-family="Times, serif"
         font-size="14px"
         id="text201"
         inkscape:transform-center-x="-27.932668"
         inkscape:transform-center-y="0.63483336">crm:P141_assigned</text>
    </g>
    <!-- B_:genid1&#45;&gt;Rbsp:coin_1 -->
    <g
       id="edge6"
       class="edge">
      <title
         id="title204">B_:genid1-&gt;Rbsp:coin_1</title>
      <path
         fill="none"
         stroke="black"
         d="M33.38,-264.62C39.49,-268.2 46.83,-271.91 54,-274.01 194.94,-315.35 368.84,-316.28 462.88,-312.9"
         id="path206" />
      <polygon
         fill="black"
         stroke="black"
         points="463.26,-316.39 473.11,-312.5 462.99,-309.39 463.26,-316.39"
         id="polygon208" />
      <text
         text-anchor="middle"
         x="233"
         y="-317.81"
         font-family="Times,serif"
         font-size="14.00"
         id="text210">crm:P140_assigned_attribute_to</text>
    </g>
    <!-- Rcrm:E13 -->
    <g
       id="node5"
       class="node">
      <title
         id="title213">Rcrm:E13</title>
      <ellipse
         fill="none"
         stroke="blue"
         cx="532.04"
         cy="-255.01"
         rx="50.09"
         ry="18"
         id="ellipse215" />
      <text
         text-anchor="middle"
         x="532.04"
         y="-251.31"
         font-family="Times,serif"
         font-size="14.00"
         id="text217">crm:E13</text>
    </g>
    <!-- B_:genid1&#45;&gt;Rcrm:E13 -->
    <g
       id="edge3"
       class="edge">
      <title
         id="title220">B_:genid1-&gt;Rcrm:E13</title>
      <path
         fill="none"
         stroke="black"
         d="M36.04,-255.01C103.75,-255.01 355.79,-255.01 471.85,-255.01"
         id="path222" />
      <polygon
         fill="black"
         stroke="black"
         points="471.97,-258.52 481.97,-255.01 471.97,-251.52 471.97,-258.52"
         id="polygon224" />
      <text
         text-anchor="middle"
         x="262.83716"
         y="-265.15833"
         font-family="Times, serif"
         font-size="14px"
         id="text226"><tspan
           sodipodi:role="line"
           id="tspan442"
           x="262.83716"
           y="-265.15833">rdf:type</tspan></text>
    </g>
    <!-- Rnmo:hasMint -->
    <g
       id="node6"
       class="node">
      <title
         id="title229">Rnmo:hasMint</title>
      <ellipse
         fill="none"
         stroke="blue"
         cx="532.04"
         cy="-201.01"
         rx="71.49"
         ry="18"
         id="ellipse231" />
      <text
         text-anchor="middle"
         x="532.04"
         y="-197.31"
         font-family="Times,serif"
         font-size="14.00"
         id="text233">nmo:hasMint</text>
    </g>
    <!-- B_:genid1&#45;&gt;Rnmo:hasMint -->
    <g
       id="edge4"
       class="edge">
      <title
         id="title236">B_:genid1-&gt;Rnmo:hasMint</title>
      <path
         fill="none"
         stroke="black"
         d="M33.38,-245.41C39.49,-241.83 46.83,-238.12 54,-236.01 189.51,-196.27 355.49,-193.88 451.66,-196.76"
         id="path238" />
      <polygon
         fill="black"
         stroke="black"
         points="451.78,-200.27 461.89,-197.1 452.01,-193.27 451.78,-200.27"
         id="polygon240" />
      <text
         text-anchor="middle"
         x="243.79216"
         y="-219.49533"
         font-family="Times, serif"
         font-size="14px"
         id="text242">bmo:PX_Property</text>
    </g>
    <!-- Rnm:uncertain_value -->
    <g
       id="node7"
       class="node">
      <title
         id="title245">Rnm:uncertain_value</title>
      <ellipse
         fill="none"
         stroke="blue"
         cx="532.04"
         cy="-147.01"
         rx="102.08"
         ry="18"
         id="ellipse247" />
      <text
         text-anchor="middle"
         x="532.04"
         y="-143.31"
         font-family="Times,serif"
         font-size="14.00"
         id="text249">nm:uncertain_value</text>
    </g>
    <!-- B_:genid1&#45;&gt;Rnm:uncertain_value -->
    <g
       id="edge5"
       class="edge">
      <title
         id="title252">B_:genid1-&gt;Rnm:uncertain_value</title>
      <path
         fill="none"
         stroke="black"
         d="M21.63,-237.07C25.36,-218.65 34.11,-190.79 54,-177.01 176.17,-92.37 360.88,-111.48 460.83,-130.6"
         id="path254" />
      <polygon
         fill="black"
         stroke="black"
         points="460.34,-134.07 470.83,-132.56 461.69,-127.2 460.34,-134.07"
         id="polygon256" />
      <text
         text-anchor="middle"
         x="234.26967"
         y="-142.08516"
         font-family="Times, serif"
         font-size="14px"
         id="text258">bmo:PX_likelihood</text>
    </g>
  </g>
</svg>
